build/img/icon-bar-dark.svg

<svg width="24" height="24" viewBox="0 0 24 24" fill="none" xmlns="http://www.w3.org/2000/svg">
<path d="M11 16.7451C11 16.3311 11.336 15.9951 11.75 15.9951H21.25C21.664 15.9951 22 16.3311 22 16.7451C22 17.1591 21.664 17.4951 21.25 17.4951H11.75C11.336 17.4951 11 17.1591 11 16.7451ZM2 11.7451C2 11.3311 2.336 10.9951 2.75 10.9951H21.25C21.664 10.9951 22 11.3311 22 11.7451C22 12.1591 21.664 12.4951 21.25 12.4951H2.75C2.336 12.4951 2 12.1591 2 11.7451ZM6 6.74512C6 6.33112 6.336 5.99512 6.75 5.99512H21.25C21.664 5.99512 22 6.33112 22 6.74512C22 7.15912 21.664 7.49512 21.25 7.49512H6.75C6.336 7.49512 6 7.15912 6 6.74512Z" fill="white"/>
</svg>

<svg width="24" height="24" fill="none" xmlns="http://www.w3.org/2000/svg"><path d="M11 16.745a.75.75 0 01.75-.75h9.5a.75.75 0 010 1.5h-9.5a.75.75 0 01-.75-.75zm-9-5a.75.75 0 01.75-.75h18.5a.75.75 0 010 1.5H2.75a.75.75 0 01-.75-.75zm4-5a.75.75 0 01.75-.75h14.5a.75.75 0 010 1.5H6.75a.75.75 0 01-.75-.75z" fill="#fff"/></svg>
